X:1380
T:Murray River Jig
C:Graham Townsend
M:6/8
L:1/8
R:jig
Z:<http://tunes.nhcountrydance.com>.
K:A
AB\  
|"A" c2c cBA| E3 EAB | "A" c2c "A7" dcB| "D" F3 FBc|
  "D" d2d "(B7)"dcB| "E7" g3 g2f |1 "E7" fee e^de | "E7" fed "A" c :|2 "E7" efe dcB | "A" A3 AED |] 
|: "A" CA,A, A,CE | "G" DB,=G, G,2B, | "A"A,CE AGA | "E7" BEE E2D |
   "A" CA,A, A,CE | "G" DB,=G, G,2F  | "A" EAA "E7" GAB|1 "A" cAA AED:|2 "A" cAA A|]

